X: 4634
T: Bowing The Strings
R: reel
M: 4/4
K: Amajor
|:"A"e2 ee e2 ee|e2 (ea) fecB|"D"A2AA A2AA|A2 (Ac) BAFA|"A"EEA EEB EE|
c2>(B2 cB A2)|"E"EEB EEc EEd EEc EEBE|"A"e2 ee e2 ee|e2 (ea) fecB|
"D"A2AA A2AA|A2 (Ac) BAFA|"A"EEA EEB EE|c3/2 "E"(A BAGB)|"A"A2 (3agf fedc|
A2 AA A2 A2:|:"D"ddf dda ddf dda ddfd|"A"cce ccf cca ccf ccec|
"B7"^ddf ddg dda ddg ddfd|"E"egbe gbeg begb e2e2|"A"e2 ee e2 ee|
e2 (ea) fecB|"D"A2 AA A2 AA|A2(Ac) BAFA|"A"EEA EEB EE|B3/2 A "E7"BAGB|
"A"A2 (3agf edcB|A2AA A2A2:|

